X: 13543
T: Flowing Bowl, The
R: reel
M: 4/4
K: Dmajor
gfed cAAB|cAdB cAAf|gfed cdef|fage d2 ef|
gfed cAAB|cAdB cAAf|gfed cdef|fage d2 (3ABc||
d2 fd Adfd|d2 fa gece|d2 fd Adfd|g2 fg egfe|
d2 fd Adfd|d2 fa gece|d2 fd Adfd|g2 fg e3 f||

